X:1
T:Elmegyek, elmegyek
C:Hungarian folk song
Z:Public Domain
L:1/8
M:2/4
K:C
V:1 treble nm="Voice"
%%MIDI program 52
V:1
 CD EE | E E3 | GF ED | A, A,3 | DC B,C | D2 G,2 | A,B, CG, | G, A,3- |] %8
w: El- me- gyek, el-|me- gyek,|Hosz- szú út- ra|me- gyek,|Hosz- szú út po-|rá- ból|Kö- pö- nye- get|ve- szek.-|

